dist/svg/static/parking-in-right-long-small.svg

<svg xmlns="http://www.w3.org/2000/svg" width="24" height="24" viewBox="0 0 24 24"><g fill="none" stroke="currentColor" stroke-miterlimit="10"><path d="M12.5 24v-2.5h-8c-1.1 0-2-.9-2-2v-15c0-1.1.9-2 2-2h8V0"/><path d="M20.5 0v2.5c0 2.8-2.2 5-5 5h-1c-2.8 0-5 2.2-5 5v5"/><path d="M13 14l-3.5 3.5L6 14"/></g></svg>

<?xml version="1.0" encoding="UTF-8" standalone="no"?>
<svg width="24px" height="24px" viewBox="0 0 24 24" version="1.1" xmlns="http://www.w3.org/2000/svg" xmlns:xlink="http://www.w3.org/1999/xlink">
    <!-- Generator: sketchtool 46.2 (44496) - http://www.bohemiancoding.com/sketch -->
    <title>parking-in-right-long-small</title>
    <desc>Created with sketchtool.</desc>
    <defs></defs>
    <g id="icons-published" stroke="none" stroke-width="1" fill="none" fill-rule="evenodd">
        <g id="briefing" transform="translate(-644.000000, -1178.000000)"></g>
        <g id="parking-in-right-long-small" stroke="#000000">
            <path d="M12.5,24 L12.5,21.5 L4.5,21.5 C3.4,21.5 2.5,20.6 2.5,19.5 L2.5,4.5 C2.5,3.4 3.4,2.5 4.5,2.5 L12.5,2.5 L12.5,0" id="Shape"></path>
            <path d="M20.5,0 L20.5,2.5 C20.5,5.3 18.3,7.5 15.5,7.5 L14.5,7.5 C11.7,7.5 9.5,9.7 9.5,12.5 L9.5,17.5" id="Shape"></path>
            <polyline id="Shape" points="13 14 9.5 17.5 6 14"></polyline>
        </g>
    </g>
</svg>
